_includes/icons/color-mad.svg

<svg fill="#666" height="50" viewBox="0 0 48 48" width="50" xmlns="http://www.w3.org/2000/svg"><path d="m14 27c0 2.207031-1.789062 4-4 4-2.210937 0-4-1.792969-4-4 0-2.210937 1.789063-4 4-4 2.210938 0 4 1.789063 4 4m28 0c0-2.210937-1.789062-4-4-4-2.210937 0-4 1.789063-4 4 0 2.207031 1.789063 4 4 4 2.210938 0 4-1.792969 4-4" fill="#ffa726"/><path d="m9 20c0-12.726562 30-8.285156 30 0v10c0 8.285156-6.714844 15-15 15s-15-6.714844-15-15z" fill="#ffb74d"/><path d="m40.890625 19.339844c-.472656-5.976563-2.761719-11.390625-10.089844-12.871094l-1.699218-3.46875h-5.101563c-9.230469 0-17 7.480469-17 18v3.398438l3 3.601562v-6l21-7 7 6v7l3-3.601562v-3.398438c0-.566406-.042969-1.117187-.109375-1.660156" fill="#424242"/><path d="m30 38.804688c0 3.222656-2.6875 1.945312-6 1.945312-3.316406 0-6 1.277344-6-1.945312v-.972657c0-3.222656 2.8125-4.832031 6-4.832031 3.183594 0 6 1.609375 6 4.832031z" fill="#c62828"/><path d="m18.753906 35h10.492188c-1.039063-1.792969-3.027344-2-5.246094-2s-4.207031.207031-5.246094 2" fill="#eceff1"/><path d="m33 25v2.335938c0 1.425781-1.15625 2.582031-2.582031 2.582031-1.117188 0-2.058594-.707031-2.417969-1.699219zm-18 0v2.335938c0 1.425781 1.15625 2.582031 2.582031 2.582031 1.117188 0 2.054688-.707031 2.417969-1.699219z" fill="#784719"/></svg>

<svg xmlns="http://www.w3.org/2000/svg" viewBox="0 0 48 48" width="50" height="50" fill="#666"><path d="M 14 27 C 14 29.207031 12.210938 31 10 31 C 7.789063 31 6 29.207031 6 27 C 6 24.789063 7.789063 23 10 23 C 12.210938 23 14 24.789063 14 27 M 42 27 C 42 24.789063 40.210938 23 38 23 C 35.789063 23 34 24.789063 34 27 C 34 29.207031 35.789063 31 38 31 C 40.210938 31 42 29.207031 42 27" fill="#ffa726"/><path d="M 9 20 C 9 7.273438 39 11.714844 39 20 L 39 30 C 39 38.285156 32.285156 45 24 45 C 15.714844 45 9 38.285156 9 30 Z" fill="#ffb74d"/><path d="M 40.890625 19.339844 C 40.417969 13.363281 38.128906 7.949219 30.800781 6.46875 L 29.101563 3 L 24 3 C 14.769531 3 7 10.480469 7 21 L 7 24.398438 L 10 28 L 10 22 L 31 15 L 38 21 L 38 28 L 41 24.398438 L 41 21 C 41 20.433594 40.957031 19.882813 40.890625 19.339844" fill="#424242"/><path d="M 30 38.804688 C 30 42.027344 27.3125 40.75 24 40.75 C 20.683594 40.75 18 42.027344 18 38.804688 L 18 37.832031 C 18 34.609375 20.8125 33 24 33 C 27.183594 33 30 34.609375 30 37.832031 Z" fill="#c62828"/><path d="M 18.753906 35 L 29.246094 35 C 28.207031 33.207031 26.21875 33 24 33 C 21.78125 33 19.792969 33.207031 18.753906 35" fill="#eceff1"/><path d="M 33 25 L 33 27.335938 C 33 28.761719 31.84375 29.917969 30.417969 29.917969 C 29.300781 29.917969 28.359375 29.210938 28 28.21875 Z M 15 25 L 15 27.335938 C 15 28.761719 16.15625 29.917969 17.582031 29.917969 C 18.699219 29.917969 19.636719 29.210938 20 28.21875 Z" fill="#784719"/></svg>
